svgs/sharp-light/gun.svg

<svg xmlns="http://www.w3.org/2000/svg" viewBox="0 0 576 512"><!--! Font Awesome Pro 6.6.0 by @fontawesome - https://fontawesome.com License - https://fontawesome.com/license (Commercial License) Copyright 2024 Fonticons, Inc. --><path d="M512 48l0-16-32 0 0 16 0 16L16 64 0 64 0 80 0 224l0 16 16 0 76 0L40 448l-8 32 33 0 143 0 32-128 104 0 11.3 0 3.8-10.6L395.3 240l52.7 0 6.6 0 4.7-4.7L486.6 208l73.4 0 16 0 0-16 0-112 0-16-16 0-48 0 0-16zM248 320l20-80 93.3 0-28.6 80L248 320zm-13-80L183 448 73 448l52-208 110 0zm41-32l-33 0-143 0-68 0L32 96l448 0 32 0 32 0 0 80-64 0-6.6 0-4.7 4.7L441.4 208 276 208z"/></svg>

<svg xmlns="http://www.w3.org/2000/svg" viewBox="0 0 576 512"><!--! Font Awesome Pro 6.4.0 by @fontawesome - https://fontawesome.com License - https://fontawesome.com/license (Commercial License) Copyright 2023 Fonticons, Inc. --><path d="M512 48V32H480V48 64H16 0V80 224v16H16 92L40 448l-8 32H65 208l32-128H344h11.3l3.8-10.6L395.3 240H448h6.6l4.7-4.7L486.6 208H560h16V192 80 64H560 512V48zM248 320l20-80h93.3l-28.6 80H248zm-13-80L183 448H73l52-208H235zm41-32H243 100 32V96H480h32 32v80H480h-6.6l-4.7 4.7L441.4 208H276z"/></svg>
